resources/icons/16px/low-voltage-pole.svg

<svg width="16" height="16" viewBox="0 0 16 16" fill="none" xmlns="http://www.w3.org/2000/svg">
<path d="M8 0C7.44772 0 7 0.447715 7 1V2H3V1.5C3 1.22386 2.77614 1 2.5 1C2.22386 1 2 1.22386 2 1.5V2C1.44772 2 1 2.44772 1 3C1 3.55228 1.44772 4 2 4L2 5H1.5C1.22386 5 1 5.22386 1 5.5C1 5.77614 1.22386 6 1.5 6H3.5C3.77614 6 4 5.77614 4 5.5C4 5.22386 3.77614 5 3.5 5H3V4H7V15C7 15.5523 7.44772 16 8 16C8.55228 16 9 15.5523 9 15V4H13V5H12.5C12.2239 5 12 5.22386 12 5.5C12 5.77614 12.2239 6 12.5 6H14.5C14.7761 6 15 5.77614 15 5.5C15 5.22386 14.7761 5 14.5 5H14L14 4C14.5523 4 15 3.55228 15 3C15 2.44772 14.5523 2 14 2L14 1.5C14 1.22386 13.7761 1 13.5 1C13.2239 1 13 1.22386 13 1.5V2H9V1C9 0.447715 8.55228 0 8 0Z" fill="black"/>
</svg>

<svg xmlns="http://www.w3.org/2000/svg" viewBox="0 0 16 16">
  <path d="M8 0a1 1 0 0 0-1 1v1H3v-.5a.5.5 0 0 0-1 0V2a1 1 0 0 0 0 2v1h-.5a.5.5 0 0 0 0 1h2a.5.5 0 0 0 0-1H3V4h4v11a1 1 0 1 0 2 0V4h4v1h-.5a.5.5 0 0 0 0 1h2a.5.5 0 0 0 0-1H14V4a1 1 0 1 0 0-2v-.5a.5.5 0 0 0-1 0V2H9V1a1 1 0 0 0-1-1"/>
</svg>
